raw/symbols/ksm.svg

<svg width="42" height="42" viewBox="0 0 42 42" fill="none" xmlns="http://www.w3.org/2000/svg">
<path d="M21 41C32.0457 41 41 32.0457 41 21C41 9.9543 32.0457 1 21 1C9.9543 1 1 9.9543 1 21C1 32.0457 9.9543 41 21 41Z" fill="#222222"/>
<path d="M33.2936 13.4139C32.8723 13.0817 32.37 12.628 31.4545 12.5145C30.5957 12.4011 29.7207 12.9764 29.1293 13.3571C28.5378 13.7379 27.4198 14.856 26.958 15.1963C26.4961 15.5365 25.3133 15.8525 23.4093 16.9949C21.5054 18.1372 14.0355 22.9335 14.0355 22.9335L15.9799 22.9578L7.31096 27.422H8.17786L6.93018 28.3699C6.93018 28.3699 8.03203 28.6615 8.95564 28.0782V28.3456C8.95564 28.3456 19.2774 24.2784 21.2705 25.3317L20.0552 25.6882C20.1605 25.6882 22.1211 25.8178 22.1211 25.8178C22.1687 26.2238 22.3052 26.6143 22.5209 26.9616C22.7365 27.3089 23.026 27.6044 23.3688 27.827C24.5517 28.6048 24.576 29.0342 24.576 29.0342C24.576 29.0342 23.9603 29.2854 23.9603 29.6014C23.9603 29.6014 24.8677 29.3259 25.7103 29.3502C26.245 29.3705 26.7754 29.4548 27.2901 29.6014C27.2901 29.6014 27.2253 29.2611 26.407 29.0342C25.5887 28.8074 24.7786 27.9162 24.3816 27.4301C24.1384 27.1206 23.9799 26.7533 23.9217 26.3641C23.8634 25.9749 23.9074 25.5772 24.0494 25.2102C24.333 24.4729 25.3214 24.0678 27.363 23.0145C29.7693 21.7669 30.3202 20.8433 30.6605 20.1222C31.0008 19.4011 31.5031 17.9671 31.7867 17.2946C32.1431 16.4277 32.5806 15.9659 32.9452 15.6905C33.3098 15.415 34.9302 14.8074 34.9302 14.8074C34.9302 14.8074 33.6906 13.7298 33.2936 13.4139Z" fill="white"/>
</svg>

<svg xmlns="http://www.w3.org/2000/svg" width="42" height="42" fill="none"><path fill="#222" d="M21 41c11.046 0 20-8.954 20-20S32.046 1 21 1 1 9.954 1 21s8.954 20 20 20Z"/><path fill="#fff" d="M33.294 13.414c-.422-.332-.924-.786-1.84-.9-.858-.113-1.733.462-2.325.843-.591.38-1.71 1.499-2.171 1.84-.462.34-1.645.655-3.549 1.798-1.904 1.142-9.373 5.938-9.373 5.938l1.944.025-8.669 4.464h.867l-1.248.948s1.102.291 2.026-.292v.268s10.321-4.068 12.314-3.014l-1.215.356c.105 0 2.066.13 2.066.13a2.782 2.782 0 0 0 1.248 2.009c1.183.778 1.207 1.207 1.207 1.207s-.616.251-.616.567c0 0 .908-.275 1.75-.25.535.02 1.065.104 1.58.25 0 0-.065-.34-.883-.567-.818-.227-1.628-1.118-2.025-1.604a2.268 2.268 0 0 1-.333-2.22c.284-.737 1.272-1.142 3.314-2.195 2.406-1.248 2.957-2.172 3.297-2.893.34-.72.843-2.155 1.127-2.827.356-.867.794-1.33 1.158-1.605.365-.275 1.985-.883 1.985-.883s-1.24-1.077-1.636-1.393Z"/></svg>
